svg/transport/rocket_line.svg

<?xml version="1.0" encoding="UTF-8"?>
<svg width="24px" height="24px" viewBox="0 0 24 24" version="1.1" xmlns="http://www.w3.org/2000/svg" xmlns:xlink="http://www.w3.org/1999/xlink">
    <title>rocket_line</title>
    <g id="页面-1" stroke="none" stroke-width="1" fill="none" fill-rule="evenodd">
        <g id="Transport" transform="translate(-48.000000, -96.000000)" fill-rule="nonzero">
            <g id="rocket_line" transform="translate(48.000000, 96.000000)">
                 <path d="M24,0 L24,24 L0,24 L0,0 L24,0 Z M12.5934901,23.257841 L12.5819402,23.2595131 L12.5108777,23.2950439 L12.4918791,23.2987469 L12.4918791,23.2987469 L12.4767152,23.2950439 L12.4056548,23.2595131 C12.3958229,23.2563662 12.3870493,23.2590235 12.3821421,23.2649074 L12.3780323,23.275831 L12.360941,23.7031097 L12.3658947,23.7234994 L12.3769048,23.7357139 L12.4804777,23.8096931 L12.4953491,23.8136134 L12.4953491,23.8136134 L12.5071152,23.8096931 L12.6106902,23.7357139 L12.6232938,23.7196733 L12.6232938,23.7196733 L12.6266527,23.7031097 L12.609561,23.275831 C12.6075724,23.2657013 12.6010112,23.2592993 12.5934901,23.257841 L12.5934901,23.257841 Z M12.8583906,23.1452862 L12.8445485,23.1473072 L12.6598443,23.2396597 L12.6498822,23.2499052 L12.6498822,23.2499052 L12.6471943,23.2611114 L12.6650943,23.6906389 L12.6699349,23.7034178 L12.6699349,23.7034178 L12.678386,23.7104931 L12.8793402,23.8032389 C12.8914285,23.8068999 12.9022333,23.8029875 12.9078286,23.7952264 L12.9118235,23.7811639 L12.8776777,23.1665331 C12.8752882,23.1545897 12.8674102,23.1470016 12.8583906,23.1452862 L12.8583906,23.1452862 Z M12.1430473,23.1473072 C12.1332178,23.1423925 12.1221763,23.1452606 12.1156365,23.1525954 L12.1099173,23.1665331 L12.0757714,23.7811639 C12.0751323,23.7926639 12.0828099,23.8018602 12.0926481,23.8045676 L12.108256,23.8032389 L12.3092106,23.7104931 L12.3186497,23.7024347 L12.3186497,23.7024347 L12.3225043,23.6906389 L12.340401,23.2611114 L12.337245,23.2485176 L12.337245,23.2485176 L12.3277531,23.2396597 L12.1430473,23.1473072 Z" id="MingCute" fill-rule="nonzero"></path>
                <path d="M18.4204,2.79688 L18.8059711,2.85295405 C19.4057917,2.94806843 20.0777273,3.10685818 20.4914,3.52049 C20.9049909,3.93413 21.0638,4.6060395 21.1589228,5.20585718 L21.215,5.59143 L21.215,5.59143 C21.3408,6.50155 21.3737,7.69413 21.159,9.01795 C20.7351,11.631 19.3441,14.7487 15.8506,17.1627 C15.833175,17.33965 15.8309625,17.5191562 15.8343234,17.6997219 L15.8514875,18.2431 C15.861225,18.605475 15.8547,18.9661 15.7548,19.313 C15.56464,19.97332 14.888464,20.407976 14.2558336,20.7201872 L13.9455989,20.8665669 L13.9455989,20.8665669 L13.545635,21.0430858 L13.545635,21.0430858 L13.2717214,21.1538822 C12.5649515,21.4238828 11.7127895,21.6119105 11.154,21.0532 C10.9005429,20.7997429 10.7836653,20.4557714 10.6896367,20.111716 L10.644,19.9401 C10.4849,19.3334 10.3028,18.7309 10.0768,18.1456 C10.015,18.2208 9.94895,18.2936 9.87872,18.3639 C9.3344075,18.908175 8.59528437,19.1823375 7.85566625,19.394625 L7.36464657,19.5292685 L7.36464657,19.5292685 L6.87439635,19.6599076 L6.87439635,19.6599076 L6.39740928,19.7784902 L6.39740928,19.7784902 L5.96538922,19.8780687 L5.96538922,19.8780687 L5.44837987,19.9882318 L5.44837987,19.9882318 L5.1252,20.0516 L5.1252,20.0516 C4.83683,20.1054 4.48846,20.0353 4.22654,19.7734 C3.96462,19.5115 3.89458,19.1631 3.94831,18.8747 L4.05896552,18.3240328 L4.05896552,18.3240328 L4.18762684,17.7458685 L4.18762684,17.7458685 L4.31150404,17.2368012 L4.31150404,17.2368012 L4.53657769,16.3905727 C4.76003833,15.5712833 5.03128833,14.7260333 5.63608,14.1212 L5.73567,14.026 L5.73567,14.026 L4.9726775,13.7515375 L4.9726775,13.7515375 L4.20589,13.4881 C3.75736,13.34 3.28472,13.1839 2.95865,12.8578 C2.36266684,12.2618421 2.61634839,11.3320205 2.91287999,10.6008928 L3.07888,10.2141 L3.07888,10.2141 L3.21613148,9.91300327 C3.53302244,9.2394864 3.983484,8.46308133 4.6989,8.25704 C5.045755,8.15715 5.4063725,8.15063 5.76875125,8.16037375 L6.31214016,8.17754891 C6.49271,8.18091437 6.67222,8.1787075 6.84917,8.16129 C9.26314,4.66772 12.3808,3.27676 14.9939,2.8529 C16.3177,2.63817 17.5103,2.67102 18.4204,2.79688 Z M15.3141,4.8271 C13.1157,5.18369 10.4451,6.36124 8.36074,9.49569 C8.10825,9.87536 7.68105,10.0575 7.24552,10.1263 C6.99978,10.16506 6.751856,10.175628 6.50314768,10.1760648 L5.75606944,10.1650424 C5.6316308,10.16416 5.507346,10.16526 5.38339,10.1706 C5.07949,10.5749 4.86721,11.0551 4.70779,11.5323 L6.20788495,12.0766841 L6.20788495,12.0766841 L6.82508614,12.3098919 C7.95254302,12.7519582 9.04447,13.2867733 9.88476,14.1271 C11.2999,15.5422 12.0193,17.3932 12.5393,19.2837 C12.9948,19.1243 13.4534,18.92 13.8412,18.6285 L13.8467776,18.2556376 L13.8467776,18.2556376 L13.8355552,17.5099512 C13.835952,17.261596 13.84656,17.01358 13.8856,16.7663 C13.9543,16.3308 14.1365,15.9036 14.5162,15.6511 C17.6506,13.5667 18.8282,10.8961 19.1848,8.69773 C19.3648,7.58788 19.3349,6.59643 19.2338,5.86539 C19.179,5.46915 19.1028,5.15678 19.0414,4.97048 C18.8551,4.90906 18.5427,4.83282 18.1465,4.77802 C17.4154,4.67693 16.424,4.64708 15.3141,4.8271 Z M7.05029,15.5354 C6.700444,15.95757 6.5367784,16.513118 6.40564292,17.0634034 L6.29762396,17.5305542 C6.279754,17.60712 6.261652,17.68277 6.24287,17.7571 L6.93673688,17.5943053 C7.4872026,17.463168 8.042976,17.29948 8.46495,16.9492 C8.85547,16.5587 8.85503,15.926 8.4645,15.5354 C8.07398,15.1449 7.44081,15.1449 7.05029,15.5354 Z M12.7072,8.46441 C13.4882,7.68336 14.7546,7.68336 15.5356,8.46441 C16.3167,9.24546 16.3167,10.5118 15.5356,11.2928 C14.7546,12.0739 13.4882,12.0739 12.7072,11.2928 C11.9261,10.5118 11.9261,9.24546 12.7072,8.46441 Z" id="形状" fill="#09244B"></path>
            </g>
        </g>
    </g>
</svg>

<svg xmlns="http://www.w3.org/2000/svg" width="24" height="24"><g fill="none" fill-rule="nonzero"><path d="M24 0v24H0V0h24ZM12.593 23.258l-.011.002-.071.035-.02.004-.014-.004-.071-.035c-.01-.004-.019-.001-.024.005l-.004.01-.017.428.005.02.01.013.104.074.015.004.012-.004.104-.074.012-.016.004-.017-.017-.427c-.002-.01-.009-.017-.017-.018Zm.265-.113-.013.002-.185.093-.01.01-.003.011.018.43.005.012.008.007.201.093c.012.004.023 0 .029-.008l.004-.014-.034-.614c-.003-.012-.01-.02-.02-.022Zm-.715.002a.023.023 0 0 0-.027.006l-.006.014-.034.614c0 .012.007.02.017.024l.015-.002.201-.093.01-.008.004-.011.017-.43-.003-.012-.01-.01-.184-.092Z"/><path fill="#09244B" d="m18.42 2.797.386.056c.6.095 1.272.254 1.685.667.414.414.573 1.086.668 1.686l.056.385c.126.91.159 2.103-.056 3.427-.424 2.613-1.815 5.73-5.308 8.145a4.61 4.61 0 0 0-.017.537l.017.543c.01.362.004.723-.096 1.07-.19.66-.867 1.095-1.5 1.407l-.31.147-.4.176-.273.11c-.707.27-1.56.459-2.118-.1-.253-.253-.37-.597-.464-.941l-.046-.172c-.16-.607-.341-1.21-.567-1.794a3.04 3.04 0 0 1-.198.218c-.545.544-1.284.818-2.023 1.03l-.491.135-.49.13-.478.12-.432.1-.517.11-.323.063a1.009 1.009 0 0 1-1.177-1.177l.111-.551.129-.578.124-.51.225-.845c.223-.82.494-1.665 1.1-2.27l.099-.095-.763-.274-.767-.264c-.449-.148-.921-.304-1.247-.63-.596-.596-.343-1.526-.046-2.257l.166-.387.137-.301c.317-.674.767-1.45 1.483-1.656.347-.1.707-.106 1.07-.097l.543.018c.18.003.36 0 .537-.017 2.414-3.493 5.532-4.884 8.145-5.308a11.693 11.693 0 0 1 3.426-.056Zm-3.106 2.03c-2.198.357-4.869 1.534-6.953 4.669-.253.38-.68.561-1.115.63-.246.04-.494.05-.743.05l-.747-.011c-.124 0-.249 0-.373.006-.304.404-.516.884-.675 1.361l1.5.545.617.233c1.128.442 2.22.977 3.06 1.817 1.415 1.415 2.134 3.266 2.654 5.157.456-.16.914-.364 1.302-.655l.006-.373-.011-.746c0-.248.01-.496.05-.744.068-.435.25-.862.63-1.115 3.135-2.084 4.312-4.755 4.669-6.953.18-1.11.15-2.102.049-2.833a5.378 5.378 0 0 0-.193-.895 5.375 5.375 0 0 0-.895-.192 9.697 9.697 0 0 0-2.832.05ZM7.05 15.535c-.35.423-.513.978-.644 1.528l-.108.468-.055.226.694-.163c.55-.13 1.106-.295 1.528-.645a1 1 0 1 0-1.415-1.414Zm5.657-7.07a2 2 0 1 1 2.829 2.828 2 2 0 0 1-2.829-2.829Z"/></g></svg>
